!!!COM: Schiørring, Niels
!!!CDT: 1743-1798
!!!OPR@@DA: Choral-Bog
!!!ONM: 66
!!!OTL@@DA: Min Fader fød mig til dit Billede
**kern	**fb	**kern	**kern	**kern	**kern	**kern	**kern	**kern
*part6	*part6	*part6	*part5	*part5	*part4	*part3	*part2	*part1
*staff8	*	*staff7	*staff6	*staff5	*staff4	*staff3	*staff2	*staff1
*clefF4	*	*clefC1	*clefF4	*clefC1	*clefF4	*clefC4	*clefC3	*clefC1
*mclefF4	*	*mclefG2	*mclefF4	*mclefG2	*mclefF4	*mclefGv2	*mclefG2	*mclefG2
*k[]	*	*k[]	*k[]	*k[]	*k[]	*k[]	*k[]	*k[]
*M4/4	*	*M4/4	*M4/4	*M4/4	*M4/4	*M4/4	*M4/4	*M4/4
*met(c)	*	*met(c)	*met(c)	*met(c)	*met(c)	*met(c)	*met(c)	*met(c)
*MM180	*	*MM180	*MM180	*MM180	*MM180	*MM180	*MM180	*MM180
*	*above	*	*	*	*	*	*	*
*	*slash	*	*	*	*	*	*	*
*	*	*	*^	*^	*	*	*	*
=1	=1	=1	=1	=1	=1	=1	=1	=1	=1	=1
2A	.	2e	2A	2A	2e	2c	2A	2A	2c	2e
=2	=2	=2	=2	=2	=2	=2	=2	=2	=2	=2
2G	6	2e	2B	2G	2e	2e	2G	2B	2e	2e
2F	#6\	2a	2A	2F	2a	2d#X	2F	2A	2d#X	2a
=3	=3	=3	=3	=3	=3	=3	=3	=3	=3	=3
2E	#	2g#X	2B	2E	2g#X	2e	2E	2B	2e	2g#X
2C	6	2a	2c	2C	2a	2e	2C	2A	2e	2a
=4	=4	=4	=4	=4	=4	=4	=4	=4	=4	=4
2BB	#6\	2b	2ryy	2BB	2d	2g#X	2BB	2G#X	2d	2b
*	*	*	*	*	*	*^	*	*	*	*
2AA	.	2cc	2E	2AA	2cc	2a	2e\	2AA	2A	2e	2cc
=5	=5	=5	=5	=5	=5	=5	=5	=5	=5	=5	=5
2BB	6	2g	1Gni	2BB	2gni	2d	2d\	2BB	2d	2d	2g
*	*	*	*	*	*	*v	*v	*	*	*	*
2C	.	2e	.	2C	2e	2c	2C	2Gi	2c	2e
=6	=6	=6	=6	=6	=6	=6	=6	=6	=6	=6
*	*	*	*	*	*	*^	*^	*	*	*
1FF	.	2a	1F	1FF	2a	2f	2c\	2F	2FF	2A	2c	2a
.	.	2f	.	.	2f	[2c	2A\	2F	2FF	2A	[2c	2f
*	*	*	*	*	*	*v	*v	*	*	*	*	*
=7	=7	=7	=7	=7	=7	=7	=7	=7	=7	=7	=7
1GG	4	1d	2G	1GG	1d	2c]	1G	1GG	(2G	(2c]	1d
.	3	.	2F	.	.	2B	.	.	2F)	2B)	.
*	*	*	*	*	*	*	*v	*v	*	*	*
=8	=8	=8	=8	=8	=8	=8	=8	=8	=8	=8
2C	.	2c	2E	2C	2c	2G	2C	2E	2c	2c
*	*	*	*	*	*	*^	*	*	*	*
2C	.	2ee	2G	2C	2ee	[2cc	2g\	2C	[2c	2g	2ee
=9	=9	=9	=9	=9	=9	=9	=9	=9	=9	=9	=9
2G	4	2dd	2G	2G	2dd	2cc]	2g\	2G	2c]	2g	2dd
*	*	*	*	*	*	*v	*v	*	*	*	*
2G#X	6	2ee	2ryy	2G#X	2e	[2b	2G#X	[2B	2e	2ee
=10	=10	=10	=10	=10	=10	=10	=10	=10	=10	=10
2A	9	2cc	1ryy	2A	2e	2b]	2A	2B]	2e	2cc
2AA	8	2cc	.	2AA	2e	2a	2AA	2A	2e	2cc
=11	=11	=11	=11	=11	=11	=11	=11	=11	=11	=11
2E	.	2b	2ryy	2E	2e	2g	2E	2G	2e	2b
2D#X	5	2a	2B	2D#X	2a	2f#X	2D#X	2B	2f#X	2a
=12	=12	=12	=12	=12	=12	=12	=12	=12	=12	=12
2E	.	2g	2B	2E	2g	2e	2E	2B	2e	2g
2AA	.	2a	2ryy	2AA	2c	[2e	2AA	2c	[2e	2a
=13	=13	=13	=13	=13	=13	=13	=13	=13	=13	=13
2BB	4	2f#X	2B	1BB	2f#X	2e]	2BB	2B	2e]	2f#X
2BB	#	2f#	2A	.	2f#	2d#X	2BB	2A	2d#X	2f#
=14	=14	=14	=14	=14	=14	=14	=14	=14	=14	=14
2E	.	2e	2G	2E	2e	2B	2E	2G	2e	2e
2D	#4|	2e	2G#X	2Dni	2e	2B	2D	2G#X	2B	2e
=15	=15	=15	=15	=15	=15	=15	=15	=15	=15	=15
2C#X	6	2e	2A	2C#X	2e	2e	2C#X	2A	2A	2e
2Cn	6	2a	2A	2Cn	2a	2e	2Cn	2A	2e	2a
=16	=16	=16	=16	=16	=16	=16	=16	=16	=16	=16
2BB	#6\	2g#X	2B	2BB	2g#X	2d	2BB	2B	2d	2g#X
2AA	.	2a	2ryy	2AA	2c	2e	2AA	2c	2e	2a
=17	=17	=17	=17	=17	=17	=17	=17	=17	=17	=17
2E	#	2b	2ryy	2E	2e	2g#X	2E	2G#X	2e	2b
*	*	*	*	*	*	*^	*	*	*	*
2AA	.	2cc	2E	2AA	2cc	2a	2e\	2AA	2A	2e	2cc
=18	=18	=18	=18	=18	=18	=18	=18	=18	=18	=18	=18
2BB	6	2g	2Gni	2BB	2gni	2d	2d\	2BB	2d	2d	2g
*	*	*	*	*	*	*v	*v	*	*	*	*
2C	.	2e	2G	2C	2e	2c	2C	2Gi	2c	2e
=19	=19	=19	=19	=19	=19	=19	=19	=19	=19	=19
2F	.	2a	1A	1F	2a	2c	2F	2A	2c	2a
*	*	*	*	*	*	*^	*	*	*	*
2F	6	2dd	.	.	2dd	2a	2d\	2F	2A	2d	2dd
=20	=20	=20	=20	=20	=20	=20	=20	=20	=20	=20	=20
2G	.	1b	1G	1d	1b	1g	1r	(2G	1G	1d	1b
2GG	.	.	.	.	.	.	.	2GG)	.	.	.
=21	=21	=21	=21	=21	=21	=21	=21	=21	=21	=21	=21
2C	.	2cc	2c	2C	2cc	2g	2e\	2C	2G	2e	2cc
*	*	*	*	*	*	*v	*v	*	*	*	*
2c	.	2ee	2ryy	2c	2g	[2cc	2c	[2c	2g	2ee
=22	=22	=22	=22	=22	=22	=22	=22	=22	=22	=22
2F#X	5	2dd	1ryy	2F#X	2a	2cc]	2F#X	2c]	2a	2dd
2G#X	6	2ee	.	2G#X	2e	[2b	2G#X	[2B	2b	2ee
=23	=23	=23	=23	=23	=23	=23	=23	=23	=23	=23
2A	9	2cc	1ryy	2A	2e	2b]	2A	2B]	2e	2cc
2D#X	7 5	2cc	.	2D#X	2f#X	2a	2D#X	2A	2f#X	2cc
=24	=24	=24	=24	=24	=24	=24	=24	=24	=24	=24
2E	#	2b	2B	2E	2b	2g#X	2E	2G#X	2e	2b
2C	6	2a	2c	2C	2a	[2e	2C	2A	2e	2a
=25	=25	=25	=25	=25	=25	=25	=25	=25	=25	=25
2BB	#6\	2g#X	1ryy	2BB	2d	2e]	2BB	2B	2d	2g#X
2AA	.	2a	.	2AA	2c	2e	2AA	2c	2e	2a
=26	=26	=26	=26	=26	=26	=26	=26	=26	=26	=26
2D	6 5	2a	1B	2D	2a	2f	2D	2B	2f	2a
2E	#	2g#X	.	2E	2g#X	2e	2E	2B	2e	2g#X
=27	=27	=27	=27	=27	=27	=27	=27	=27	=27	=27
*	*	*	*	*	*	*^	*	*	*	*
2AA	.	2a	2A	2AA	2a	2e	2c\	2AA	2c	2e	2a
*	*	*	*v	*v	*	*	*	*	*	*	*
*	*	*	*	*v	*v	*v	*	*	*	*
==	==	==	==	==	==	==	==	==
*-	*-	*-	*-	*-	*-	*-	*-	*-
!!!system-decoration: {(s1,s2,s3,s4)}{(s5,s6)}{(s7,s8)}
!!!RDF**kern: i = editorial accidental
!!!RDF**kern: > = above
!!!RDF**kern: < = below
!!!AGN: chorale
!!!EED: Derek Remeš
!!!EED2: Victor Phan
!!!END: 2023/11/28
!!!ENC: Wolfgang Drescher
!!!EEV: 2023/12/11
!!!title: @{ONM}. @{OTL}
!!!verovio: mnumInterval 1